communes/4008.svg

<?xml version="1.0" encoding="UTF-8"?>
<svg version="1.0" viewBox="0 0 373.66 417.77" xmlns="http://www.w3.org/2000/svg">
<defs>
<clipPath id="a">
<path d="m354.48 610.2h63.71v-71.64h-63.71v71.64z"/>
</clipPath>
<clipPath id="b">
<path d="m354.48 610.2h63.71v-71.64h-63.71v71.64z"/>
</clipPath>
</defs>
<g transform="translate(-104.21 -307.83)">
<g transform="matrix(4.4556 0 0 4.4556 -1572.2 -2428.2)">
<g transform="matrix(1.25 0 0 1.25 -64.742 -57.015)">
<g clip-path="url(#b)">
<path d="m354.59 538.67h63.5v39.66l-0.05 1.62-0.12 1.63-0.17 1.62-0.28 1.52-0.39 1.56-0.4 1.52-0.5 1.45-0.55 1.46-0.68 1.4-0.67 1.34-0.78 1.34-0.84 1.3-1.8 2.46-1 1.12-1.06 1.12-1.13 1.06-1.12 1.01-1.23 0.96-1.23 0.84-1.29 0.84-1.34 0.78-1.34 0.67-1.41 0.67-1.45 0.56-1.46 0.5-1.51 0.4-1.57 0.39-1.57 0.28-1.56 0.17-1.63 0.11-1.62 0.06-1.63-0.06-1.62-0.11-1.57-0.17-1.56-0.28-1.57-0.39-1.46-0.4-1.51-0.5-1.46-0.56-1.4-0.67-1.34-0.67-1.34-0.78-1.29-0.84-1.23-0.84-1.18-0.96-1.18-1.01-1.11-1.06-1.07-1.12-0.95-1.12-0.95-1.23-0.9-1.23-0.84-1.3-0.73-1.34-0.72-1.34-0.62-1.4-0.56-1.46-0.5-1.45-0.45-1.52-0.34-1.56-0.28-1.52-0.22-1.62-0.12-1.63-0.05-1.62v-39.66z" fill-rule="evenodd"/>
</g>
<g clip-path="url(#a)">
<path d="m411.32 595.58v0l-1.07 1.46-1.12 1.34-1.24 1.29-1.34 1.23-1.34 1.18-1.45 1.06-1.52 0.95-1.57 0.9-1.62 0.84-1.63 0.67-1.73 0.62-1.79 0.5-1.79 0.45-1.85 0.28-1.9 0.17-1.91 0.05v0l-1.56-0.05-1.52-0.11-1.51-0.17-1.51-0.28-1.46-0.34-1.45-0.44-1.4-0.45-1.4-0.57-1.35-0.61-1.28-0.67-1.29-0.73-1.23-0.78-1.18-0.84-1.12-0.9-1.12-1.01-1.07-1.01-1-1.06-0.95-1.06-0.9-1.18-0.84-1.18-0.79-1.23-0.72-1.29-0.67-1.34-0.62-1.35-0.56-1.39-0.45-1.41-0.45-1.45-0.33-1.46-0.22-1.51-0.23-1.52-0.11-1.57-0.06-1.56v-37.7l55.22 55.23z" fill="#fcdb00" stroke="#fcdb00" stroke-linecap="round" stroke-linejoin="round" stroke-miterlimit="10" stroke-width=".12"/>
<path d="m416.8 552.34-23.85 23.86-12.32-12.32 23.97-23.98h12.2v12.44z" fill="#fff" fill-rule="evenodd"/>
</g>
</g>
</g>
</g>
</svg>

<?xml version="1.0" encoding="UTF-8" standalone="no"?>
<!-- Created with Inkscape (http://www.inkscape.org/) -->
<svg
   xmlns:svg="http://www.w3.org/2000/svg"
   xmlns="http://www.w3.org/2000/svg"
   version="1.0"
   width="373.66"
   height="417.76999"
   id="svg2">
  <defs
     id="defs4">
    <clipPath
       id="clipPath3276">
      <path
         d="M 418.2,612.6 L 421.56,612.6 L 421.56,600.24 L 418.2,600.24 L 418.2,612.6 z"
         id="path3278" />
    </clipPath>
    <clipPath
       id="clipPath3264">
      <path
         d="M 354.48,610.2 L 418.19,610.2 L 418.19,538.56 L 354.48,538.56 L 354.48,610.2 z"
         id="path3266" />
    </clipPath>
    <clipPath
       id="clipPath3252">
      <path
         d="M 354.48,610.2 L 418.19,610.2 L 418.19,538.56 L 354.48,538.56 L 354.48,610.2 z"
         id="path3254" />
    </clipPath>
    <clipPath
       id="clipPath3176">
      <path
         d="M 418.2,512.64 L 421.56,512.64 L 421.56,500.28 L 418.2,500.28 L 418.2,512.64 z"
         id="path3178" />
    </clipPath>
    <clipPath
       id="clipPath3158">
      <path
         d="M 354.48,510.24 L 418.19,510.24 L 418.19,438.61 L 354.48,438.61 L 354.48,510.24 z"
         id="path3160" />
    </clipPath>
    <clipPath
       id="clipPath3146">
      <path
         d="M 354.48,510.24 L 418.19,510.24 L 418.19,438.61 L 354.48,438.61 L 354.48,510.24 z"
         id="path3148" />
    </clipPath>
    <clipPath
       id="clipPath3070">
      <path
         d="M 418.2,412.68 L 421.56,412.68 L 421.56,400.32 L 418.2,400.32 L 418.2,412.68 z"
         id="path3072" />
    </clipPath>
    <clipPath
       id="clipPath3042">
      <path
         d="M 354.48,410.28 L 418.19,410.28 L 418.19,338.65 L 354.48,338.65 L 354.48,410.28 z"
         id="path3044" />
    </clipPath>
    <clipPath
       id="clipPath3032">
      <path
         d="M 354.48,410.28 L 418.19,410.28 L 418.19,338.65 L 354.48,338.65 L 354.48,410.28 z"
         id="path3034" />
    </clipPath>
    <clipPath
       id="clipPath2954">
      <path
         d="M 418.2,312.72 L 421.56,312.72 L 421.56,300.36 L 418.2,300.36 L 418.2,312.72 z"
         id="path2956" />
    </clipPath>
    <clipPath
       id="clipPath2938">
      <path
         d="M 354.48,310.32 L 418.19,310.32 L 418.19,238.69 L 354.48,238.69 L 354.48,310.32 z"
         id="path2940" />
    </clipPath>
    <clipPath
       id="clipPath2926">
      <path
         d="M 354.48,310.32 L 418.19,310.32 L 418.19,238.69 L 354.48,238.69 L 354.48,310.32 z"
         id="path2928" />
    </clipPath>
    <clipPath
       id="clipPath2846">
      <path
         d="M 418.2,212.64 L 421.56,212.64 L 421.56,200.29 L 418.2,200.29 L 418.2,212.64 z"
         id="path2848" />
    </clipPath>
    <clipPath
       id="clipPath2802">
      <path
         d="M 354.48,210.24 L 418.19,210.24 L 418.19,138.6 L 354.48,138.6 L 354.48,210.24 z"
         id="path2804" />
    </clipPath>
    <clipPath
       id="clipPath2790">
      <path
         d="M 354.48,210.24 L 418.19,210.24 L 418.19,138.6 L 354.48,138.6 L 354.48,210.24 z"
         id="path2792" />
    </clipPath>
    <clipPath
       id="clipPath2710">
      <path
         d="M 422.04,110.76 L 422.04,135.12 L 549.12,135.12 L 549.12,110.76 L 545.88,110.76 L 545.88,125.88 L 425.28,125.88 L 425.28,110.76 L 422.04,110.76 z"
         id="path2712" />
    </clipPath>
    <clipPath
       id="clipPath2688">
      <path
         d="M 351.12,110.76 L 351.12,135.12 L 354.48,135.12 L 354.48,110.76 L 351.12,110.76 z M 418.32,110.76 L 418.32,135.12 L 421.56,135.12 L 421.56,110.76 L 418.32,110.76 z"
         id="path2690" />
    </clipPath>
    <clipPath
       id="clipPath2666">
      <path
         d="M 288.84,110.76 L 288.84,135.12 L 350.64,135.12 L 350.64,110.76 L 347.4,110.76 L 347.4,132.84 L 292.08,132.84 L 292.08,110.76 L 288.84,110.76 z"
         id="path2668" />
    </clipPath>
    <clipPath
       id="clipPath2650">
      <path
         d="M 147.12,110.76 L 147.12,135.12 L 288.36,135.12 L 288.36,110.76 L 285.12,110.76 L 285.12,125.88 L 150.36,125.88 L 150.36,110.76 L 147.12,110.76 z"
         id="path2652" />
    </clipPath>
    <clipPath
       id="clipPath2634">
      <path
         d="M 67.68,110.76 L 67.68,135.12 L 146.64,135.12 L 146.64,110.76 L 143.28,110.76 L 143.28,125.88 L 70.92,125.88 L 70.92,110.76 L 67.68,110.76 z"
         id="path2636" />
    </clipPath>
    <clipPath
       id="clipPath2502">
      <path
         d="M 70.92,803.76 L 574.44,803.76 L 574.44,774.97 L 70.92,774.97 L 70.92,803.76 z"
         id="path2504" />
    </clipPath>
    <clipPath
       id="clipPath2480">
      <path
         d="M 70.92,803.76 L 574.44,803.76 L 574.44,801.97 L 70.92,801.97 L 70.92,803.76 z"
         id="path2482" />
    </clipPath>
    <clipPath
       id="clipPath2470">
      <path
         d="M 70.92,776.76 L 574.44,776.76 L 574.44,774.97 L 70.92,774.97 L 70.92,776.76 z"
         id="path2472" />
    </clipPath>
  </defs>
  <g
     transform="translate(-104.20985,-307.82616)"
     id="layer1">
    <g
       transform="matrix(4.4555681,0,0,4.4555681,-1572.2032,-2428.2389)"
       id="g5018">
      <g
         transform="matrix(1.25,0,0,1.25,-64.741962,-57.015496)"
         id="g3248">
        <g
           clip-path="url(#clipPath3252)"
           id="g3250">
          <g
             id="g3256">
            <path
               d="M 354.59,538.67 L 418.09,538.67 L 418.09,578.33 L 418.09,578.33 L 418.04,579.95 L 417.92,581.58 L 417.75,583.2 L 417.47,584.72 L 417.08,586.28 L 416.68,587.8 L 416.18,589.25 L 415.63,590.71 L 414.95,592.11 L 414.28,593.45 L 413.5,594.79 L 412.66,596.09 L 411.76,597.32 L 410.86,598.55 L 409.86,599.67 L 408.8,600.79 L 407.67,601.85 L 406.55,602.86 L 405.32,603.82 L 404.09,604.66 L 402.8,605.5 L 401.46,606.28 L 400.12,606.95 L 398.71,607.62 L 397.26,608.18 L 395.8,608.68 L 394.29,609.08 L 392.72,609.47 L 391.15,609.75 L 389.59,609.92 L 387.96,610.03 L 386.34,610.09 L 386.34,610.09 L 384.71,610.03 L 383.09,609.92 L 381.52,609.75 L 379.96,609.47 L 378.39,609.08 L 376.93,608.68 L 375.42,608.18 L 373.96,607.62 L 372.56,606.95 L 371.22,606.28 L 369.88,605.5 L 368.59,604.66 L 367.36,603.82 L 366.18,602.86 L 365,601.85 L 363.89,600.79 L 362.82,599.67 L 361.87,598.55 L 360.92,597.32 L 360.02,596.09 L 359.18,594.79 L 358.45,593.45 L 357.73,592.11 L 357.11,590.71 L 356.55,589.25 L 356.05,587.8 L 355.6,586.28 L 355.26,584.72 L 354.98,583.2 L 354.76,581.58 L 354.64,579.95 L 354.59,578.33 L 354.59,538.67 z"
               id="path3258"
               style="fill:#000000;fill-opacity:1;fill-rule:evenodd;stroke:none" />
          </g>
        </g>
      </g>
      <g
         transform="matrix(1.25,0,0,1.25,-64.741962,-57.015496)"
         id="g3260">
        <g
           clip-path="url(#clipPath3264)"
           id="g3262">
          <path
             d="M 411.32,595.58 L 411.32,595.58 L 410.25,597.04 L 409.13,598.38 L 407.89,599.67 L 406.55,600.9 L 405.21,602.08 L 403.76,603.14 L 402.24,604.09 L 400.67,604.99 L 399.05,605.83 L 397.42,606.5 L 395.69,607.12 L 393.9,607.62 L 392.11,608.07 L 390.26,608.35 L 388.36,608.52 L 386.45,608.57 L 386.45,608.57 L 384.89,608.52 L 383.37,608.41 L 381.86,608.24 L 380.35,607.96 L 378.89,607.62 L 377.44,607.18 L 376.04,606.73 L 374.64,606.16 L 373.29,605.55 L 372.01,604.88 L 370.72,604.15 L 369.49,603.37 L 368.31,602.53 L 367.19,601.63 L 366.07,600.62 L 365,599.61 L 364,598.55 L 363.05,597.49 L 362.15,596.31 L 361.31,595.13 L 360.52,593.9 L 359.8,592.61 L 359.13,591.27 L 358.51,589.92 L 357.95,588.53 L 357.5,587.12 L 357.05,585.67 L 356.72,584.21 L 356.5,582.7 L 356.27,581.18 L 356.16,579.61 L 356.1,578.05 L 356.1,540.35 L 411.32,595.58 z"
             id="path3268"
             style="fill:#fcdb00;fill-opacity:1;fill-rule:nonzero;stroke:#fcdb00;stroke-width:0.12;stroke-linecap:round;stroke-linejoin:round;stroke-miterlimit:10;stroke-dasharray:none;stroke-opacity:1" />
          <path
             d="M 416.8,552.34 L 392.95,576.2 L 380.63,563.88 L 404.6,539.9 L 416.8,539.9 L 416.8,552.34 z"
             id="path3270"
             style="fill:#ffffff;fill-opacity:1;fill-rule:evenodd;stroke:none" />
        </g>
      </g>
    </g>
  </g>
</svg>
